app/images/icon/phone.svg

<svg width="16" height="15" viewBox="0 0 16 15" fill="none" xmlns="http://www.w3.org/2000/svg">
<path d="M13.9999 9.55872C13.1044 9.55872 12.2272 9.41889 11.3959 9.14457C10.9902 9.00474 10.5294 9.11248 10.2628 9.38451L8.61465 10.6292C6.72353 9.61986 5.51322 8.4103 4.51763 6.53294L5.72869 4.92377C6.03356 4.6189 6.14284 4.17266 6.01218 3.75472C5.73557 2.91805 5.59499 2.04011 5.59499 1.14613C5.59499 0.514218 5.08077 0 4.44886 0L1.77455 0C1.14264 0 0.628418 0.514218 0.628418 1.14613C0.628418 8.51878 6.62726 14.5176 13.9999 14.5176C14.6318 14.5176 15.146 14.0034 15.146 13.3715V10.7048C15.146 10.0729 14.6318 9.55872 13.9999 9.55872Z" fill="#0037A1"/>
</svg>

<svg width="16" height="15" fill="none" xmlns="http://www.w3.org/2000/svg">
    <path d="M14 9.559a8.3 8.3 0 0 1-2.604-.414c-.406-.14-.867-.033-1.133.24l-1.648 1.244C6.724 9.62 5.513 8.41 4.518 6.533l1.21-1.61c.306-.304.415-.75.284-1.168a8.296 8.296 0 0 1-.417-2.609C5.595.514 5.081 0 4.449 0H1.775C1.143 0 .628.514.628 1.146c0 7.373 6 13.372 13.372 13.372.632 0 1.146-.515 1.146-1.147v-2.666c0-.632-.514-1.146-1.146-1.146Z" fill="#0037A1"/>
</svg>
